X: 0
T: The Battle Of Waterloo
C: Trad
M: 2/4
L: 1/8
K: Amix
|"A"A>G AB | AG GA |"G" c>d ec | "D"d2 ef/g/ | "A"a>g ed | ed BA | "G"G>A BA|G2 ed/B/ |!
"A"A>G AB | AG GA | "G"c>d ec | "D"d2 ef/g/ | "A"a>g ed | ed BA/G/ | "G"A3 B| "A"A2 ef/g/ ||!
|"A"a>g ed | ed ef | "G"g>a ge | g2 ef/g/ | "A"a>g ed | ed BA | "D"G>A BA | "Em"G2 ed/B/ |!
"A"A>G AB | AG GA | "G"c>d ec | "D"d2 ef/g/ | "A"a>g ed | ed BA/G/ | "G"A3 B | "A"A2 ed/B/ |]